X:1
T: Ayton Jig
C:
R:Jig
Q:180
K:Bb
M:6/8
L:1/16
|:F2|B4g2 f2d2B2|d2B2F2 G4G2|F2B2c2 d4d2|e2d2e2 c4F2|
B4g2 f2d2B2|d2B2F2 G4G2|F2G2A2 B4d2|c2f2F2 B4:|
|:d2|g2^f2g2 G4g2|f2c2A2 F2G2A2|B2c2d2 e2f2g2|
|1f2e2d2 c4d2|g2^f2g2 G4g2|f2c2A2 F2G2A2|B2c2d2 e4d2|c2f2F2 B4:|
|2f2e2d2 d4F2|B4g2 f2d2B2|d2B2F2 G4G2|F2G2A2 B4d2|c2f2F2 B4||
